X:434
T: Auf, auf, ihr Hirten, laát das Feld (5-31), S. 51f
N: P0704
O: Lothringen
S: MERKELBACH-PINCK, Angelika: Verklingende Weisen, Bd 5, Kassel 1962]
R: geistliches, religiöses Lied]
M: 3/4
L: 1/16
K: D
d4 | A4G4F2E2 | D4F4F4 | E4G4G4 | G4F4
d4 | A4G4F2E2 | D4F4F4 | E8G2E2 | D8
A4 | d4A4F4D2F2 | A6BGA4B2G2 | A8z4
E2F2 | G4E2F2A4E2F2 | G4B4A4
F2G2 | A4F2G2A4F2G2 | A2d2c2B2A4
A4 | d4D4F4A4 | d8-d2f2e2c2 | d8z4
E2F2 | G4E2F2G4B4 | B4A4z4
F2G2 | A4F2G2A4F2G2 | A8-A2d2c2B2 | A8z4
A4 | d4D4F4A4 | d8-d2f2e2c2 | d8

